X:1
T: The Euler Line
C:Gordy Euler
R:Jig
Q: 180
K:A
M:6/8
L:1/16
|:a2e2g2 a2e2c2|d2e2f2 g2f2g2|a2A2c2 d2B2c2|d2f2a2 g2a2b2|
a2e2g2 a2e2c2|d2e2f2 g2f2g2|a2A2dc B2c2d2|c2A2A2 A6:|
|:a2e2f2 =g2d2e2|=f2=g2f2 e2d2B2|A2c2e2 gab2a2|g2e2d2 e2f2g2|
a2e2f2 =g2d2e2|=f2=g2f2 e2d2B2|A2e2dc B2c2d2|c2A2A2 A6:|
